X: 31003
T: COTILLION No. 12. HIGHLAND SETT tune 3
C:
%R: reel
B: Elias Howe "The Musician's Companion" Part 3 1844 p.100 #3
S: http://imslp.org/wiki/The_Musician's_Companion_(Howe,_Elias)
Z: 2015 John Chambers <jc:trillian.mit.edu>
M: 2/4
L: 1/16
K: G
% - - - - - - - - - - - - - - - - - - - - - - - - - - - - -
d2 |\
[g4B4] [f4A4] | g2d2d2 ba | gagf efed | cdcB A2fg |\
a4 d4 | c'4 z2bc' | d'c'ba g2f2 | g2b2g2 H|]
fg |\
agfe dcBA | GBdB g2bc' | d'2b2 c'2a2 | gfgb a2fg |\
agfe dcBA | GBdf g2e2 | dfa2 age^c | d2f2"^D.C."d2 |]
B2 |\
e4 g4 | f4 ^dcB2 | g4 a4 | b4 b4 |\
c'bc'b c'2f2 | b^aba b4g4 | a4 g4 | f6 B2 |\
e4 g4 | f4 ^d2cB | g4 a4 | b4 b2d'2 |\
c'2b2 a4 | b2a2 g4 | e2b2 a2g2 | ^d4 "^D.C."e2 |]
% - - - - - - - - - - Dance description - - - - - - - - - -
%%begintext align
%% Right and left 4,
%% balance,
%% turn partners,
%% grand right and left,
%% balance,
%% ladies chain.
%%endtext
% - - - - - - - - - - - - - - - - - - - - - - - - - - - - -
%%sep 1 1 300
